assets/mileage.svg

<?xml version="1.0" encoding="UTF-8"?>
<svg width="20px" height="18px" viewBox="0 0 20 18" version="1.1" xmlns="http://www.w3.org/2000/svg" xmlns:xlink="http://www.w3.org/1999/xlink">
    <!-- Generator: Sketch 47.1 (45422) - http://www.bohemiancoding.com/sketch -->
    <title>Mask</title>
    <desc>Created with Sketch.</desc>
    <defs>
        <path d="M10,13 C8.34314575,13 7,11.6568542 7,10 C7,8.88 7.61,7.9 8.5,7.39 L18.21,1.77 L12.68,11.35 C12.18,12.33 11.17,13 10,13 L10,13 Z M10,0 C11.81,0 13.5,0.5 14.97,1.32 L12.87,2.53 C12,2.19 11,2 10,2 C5.581722,2 2,5.581722 2,10 C2,12.21 2.89,14.21 4.34,15.65 L4.35,15.65 C4.74,16.04 4.74,16.67 4.35,17.06 C3.96,17.45 3.32,17.45 2.93,17.07 L2.93,17.07 C1.12,15.26 0,12.76 0,10 C-8.8817842e-16,4.4771525 4.4771525,1.77635684e-15 10,4.4408921e-16 L10,0 Z M20,10 C20,12.76 18.88,15.26 17.07,17.07 L17.07,17.07 C16.68,17.45 16.05,17.45 15.66,17.06 C15.27,16.67 15.27,16.04 15.66,15.65 L15.66,15.65 C17.11,14.2 18,12.21 18,10 C18,9 17.81,8 17.46,7.1 L18.67,5 C19.5,6.5 20,8.18 20,10 Z" id="path-1"></path>
    </defs>
    <g id="Icons" stroke="none" stroke-width="1" fill="none" fill-rule="evenodd">
        <g id="amenitiy-/-mileage" transform="translate(-2.000000, -3.000000)">
            <g id="mileage">
                <g id="Icon-🎨" transform="translate(2.000000, 3.000000)">
                    <mask id="mask-2" fill="white">
                        <use xlink:href="#path-1"></use>
                    </mask>
                    <use id="Mask" fill="#001833" fill-rule="nonzero" xlink:href="#path-1"></use>
                </g>
            </g>
        </g>
    </g>
</svg>

<?xml version="1.0" encoding="utf-8"?>
<!-- Generator: Adobe Illustrator 21.1.0, SVG Export Plug-In . SVG Version: 6.00 Build 0)  -->
<svg version="1.1" id="Layer_1" xmlns="http://www.w3.org/2000/svg" xmlns:xlink="http://www.w3.org/1999/xlink" x="0px" y="0px"
	 viewBox="0 0 20 18" style="enable-background:new 0 0 20 18;" xml:space="preserve">
<style type="text/css">
	.st0{fill:#001833;}
</style>
<path id="path-1_1_" class="st0" d="M10,13c-1.7,0-3-1.3-3-3c0-1.1,0.6-2.1,1.5-2.6l9.7-5.6l-5.5,9.6C12.2,12.3,11.2,13,10,13L10,13
	z M10,0c1.8,0,3.5,0.5,5,1.3l-2.1,1.2C12,2.2,11,2,10,2c-4.4,0-8,3.6-8,8c0,2.2,0.9,4.2,2.3,5.6h0c0.4,0.4,0.4,1,0,1.4
	c-0.4,0.4-1,0.4-1.4,0l0,0C1.1,15.3,0,12.8,0,10C0,4.5,4.5,0,10,0L10,0z M20,10c0,2.8-1.1,5.3-2.9,7.1l0,0c-0.4,0.4-1,0.4-1.4,0
	c-0.4-0.4-0.4-1,0-1.4l0,0c1.5-1.4,2.3-3.4,2.3-5.6c0-1-0.2-2-0.5-2.9L18.7,5C19.5,6.5,20,8.2,20,10z"/>
</svg>
